X: 18
T:My Otis Thomas Mandolin
M:4/4
L:1/8
C:Jerry Holland
R:Reel
K:C
"C"E2 cE dEcE|"C"E2 GE "G7"FDB,D|"C"E2 cE "Am"dEcE|"G7"FDB,GM"C"ECCF|!
"C"E2 cE dEcE|"C"E2 GE "G7"FDB,D|"C"C2 EG "Am"cdec|"G7"dBGB "C"dcc2:|!
|:"C"GE E/E/E Gceg|"C"g^fag gece|"G7"dG G/G/G dGeG|"D7"dG G/G/G "G7"Bcdf
|!
"C" ec c/c/c Gceg|"C"g^fag gece|"G7"dG G/G/G "Dm7"Bcd=f|"G7"ecdB "C"c2 c
2:||
